dist/images/ignore/icon-external-grey.svg

<svg width="13" height="12" viewBox="0 0 13 12" xmlns="http://www.w3.org/2000/svg" xmlns:sketch="http://www.bohemiancoding.com/sketch/ns"><title>icon-external-blue</title><desc>Created with Sketch.</desc><path d="M12.7 5.2l-3.2-3.1c-.2-.2-.5-.3-.7-.3-.2 0-.6.1-.9.3-.3.2-.3.5-.3.9 0 .3.1.6.3.9l1.2 1.1h-5.1v2h5.2l-1.3 1.3c-.3.2-.3.5-.3.8 0 .3.1.6.3.9.2.3.5.3.8.3.3 0 .6-.1.8-.3l3.1-3.1c.3-.3.4-.5.4-.9 0-.2-.1-.6-.3-.8zm-6.7-3.2v-2h-6v12h6v-2h-4v-8h4z" sketch:type="MSShapeGroup" fill="#D1D6DC"/></svg>

<svg width="13" height="12" viewBox="0 0 13 12" xmlns="http://www.w3.org/2000/svg"><title>icon-external-blue</title><path d="M12.7 5.2L9.5 2.1c-.2-.2-.5-.3-.7-.3-.2 0-.6.1-.9.3-.3.2-.3.5-.3.9 0 .3.1.6.3.9L9.1 5H4v2h5.2L7.9 8.3c-.3.2-.3.5-.3.8 0 .3.1.6.3.9.2.3.5.3.8.3.3 0 .6-.1.8-.3l3.1-3.1c.3-.3.4-.5.4-.9 0-.2-.1-.6-.3-.8zM6 2V0H0v12h6v-2H2V2h4z" fill="#D1D6DC"/></svg>
